X:13
% %NRChange 2008-02-24
T:Eleanor's Processional
C:Mark Heiman
O:USA
M:4/4
L:1/4
Q:1/4=120
K:D
%P:A
"D"F/G/ "D7"A A2 | "G"G/A/ B "Em"B d | "A"c>d e A | "G"G2 "D"F2 |
"D"F/G/ "D7"A A2 | "G"G/A/ B "Em"B d | "A"c>d "A7"e B/c/ |[1 "D"d2 d A :|[2 "D"d2 d|]
%P:B
e |"D"f/g/ a "A"e/f/ g | "Bm"~f/e/ d "G"B d/B/ |[1 "D"A d "Bm"d e |"Em"f/g/a "A"e :|[2 "D"A d "A7"d c | "D (G)"d3 :|

